X: 34740
T: Road To Lisdoonvarna, The
R: reel
M: 4/4
K: Dmixolydian
|:DAAG ABcA|GE (3EEE cAGE|DAAG ABcA|1 BcAG FGEF:|2 BcAG FDDd||
|:defd ^cAAc|BGBd ^cAAd|defd ^cAAc|1 BdAG FDD2:|2 BdAG FGEF||

